src/assets/icons/CartIcon.svg

<svg width="18" height="19" viewBox="0 0 18 19" fill="currentColor" xmlns="http://www.w3.org/2000/svg">
<path d="M1 0.660624C0.539763 0.660624 0.166667 1.03372 0.166667 1.49396C0.166667 1.95419 0.539763 2.32729 1 2.32729V0.660624ZM2.91045 1.49396L3.7148 1.27611C3.61642 0.912859 3.28679 0.660624 2.91045 0.660624V1.49396ZM6.01493 12.9566L5.21057 13.1745C5.31913 13.5753 5.70623 13.8351 6.11829 13.7835L6.01493 12.9566ZM15.5672 11.7626L15.6705 12.5895C16.0244 12.5453 16.311 12.2807 16.3832 11.9315L15.5672 11.7626ZM17 4.83724L17.8161 5.00608C17.8668 4.76065 17.8045 4.5054 17.6462 4.31106C17.4879 4.11671 17.2506 4.00391 17 4.00391V4.83724ZM3.81592 4.83724L3.01156 5.05509L3.01156 5.05509L3.81592 4.83724ZM1 1.49396V2.32729H2.91045V1.49396V0.660624H1V1.49396ZM6.01493 12.9566L6.11829 13.7835L15.6705 12.5895L15.5672 11.7626L15.4638 10.9357L5.91156 12.1298L6.01493 12.9566ZM15.5672 11.7626L16.3832 11.9315L17.8161 5.00608L17 4.83724L16.1839 4.6684L14.7511 11.5938L15.5672 11.7626ZM2.91045 1.49396L2.10609 1.7118L3.01156 5.05509L3.81592 4.83724L4.62028 4.6194L3.7148 1.27611L2.91045 1.49396ZM3.81592 4.83724L3.01156 5.05509L5.21057 13.1745L6.01493 12.9566L6.81928 12.7388L4.62028 4.6194L3.81592 4.83724ZM17 4.83724V4.00391H3.81592V4.83724V5.67058H17V4.83724ZM9 16.0834H8.16667C8.16667 16.3135 7.98012 16.5 7.75 16.5V17.3334V18.1667C8.9006 18.1667 9.83334 17.2339 9.83334 16.0834H9ZM7.75 17.3334V16.5C7.51988 16.5 7.33333 16.3135 7.33333 16.0834H6.5H5.66667C5.66667 17.2339 6.59941 18.1667 7.75 18.1667V17.3334ZM6.5 16.0834H7.33333C7.33333 15.8532 7.51988 15.6667 7.75 15.6667V14.8334V14C6.59941 14 5.66667 14.9328 5.66667 16.0834H6.5ZM7.75 14.8334V15.6667C7.98012 15.6667 8.16667 15.8532 8.16667 16.0834H9H9.83334C9.83334 14.9328 8.90059 14 7.75 14V14.8334ZM15.6667 16.0834H14.8333C14.8333 16.3135 14.6468 16.5 14.4167 16.5V17.3334V18.1667C15.5673 18.1667 16.5 17.2339 16.5 16.0834H15.6667ZM14.4167 17.3334V16.5C14.1866 16.5 14 16.3135 14 16.0834H13.1667H12.3333C12.3333 17.2339 13.2661 18.1667 14.4167 18.1667V17.3334ZM13.1667 16.0834H14C14 15.8532 14.1866 15.6667 14.4167 15.6667V14.8334V14C13.2661 14 12.3333 14.9328 12.3333 16.0834H13.1667ZM14.4167 14.8334V15.6667C14.6468 15.6667 14.8333 15.8532 14.8333 16.0834H15.6667H16.5C16.5 14.9328 15.5673 14 14.4167 14V14.8334Z" fill="currentColor"/>
</svg>

<svg xmlns="http://www.w3.org/2000/svg" width="18" height="19" fill="currentColor" viewBox="0 0 18 19"><path d="M1 .66a.833.833 0 0 0 0 1.667zm1.91.834.805-.218A.83.83 0 0 0 2.91.661zm3.105 11.463-.804.217c.108.401.495.661.907.61zm9.552-1.194.104.826a.83.83 0 0 0 .712-.658zM17 4.837l.816.17A.833.833 0 0 0 17 4.003zm-13.184 0-.804.218zM1 1.494v.833h1.91V.661H1zm5.015 11.463.103.826 9.553-1.194-.104-.826-.103-.827-9.552 1.194zm9.552-1.194.816.168 1.433-6.925L17 4.837l-.816-.169-1.433 6.926zM2.91 1.494l-.804.218.906 3.343.804-.218.804-.218-.905-3.343zm.906 3.343-.804.218 2.199 8.12.804-.218.804-.218-2.199-8.12zm13.184 0v-.833H3.816V5.67H17zM9 16.083h-.833c0 .23-.187.417-.417.417v1.667c1.15 0 2.083-.933 2.083-2.084zm-1.25 1.25V16.5a.417.417 0 0 1-.417-.417H5.667c0 1.15.932 2.084 2.083 2.084zm-1.25-1.25h.833c0-.23.187-.416.417-.416V14c-1.15 0-2.083.933-2.083 2.083zm1.25-1.25v.834c.23 0 .417.186.417.416h1.666c0-1.15-.932-2.083-2.083-2.083zm7.917 1.25h-.834c0 .23-.186.417-.416.417v1.667c1.15 0 2.083-.933 2.083-2.084zm-1.25 1.25V16.5a.417.417 0 0 1-.417-.417h-1.667c0 1.15.933 2.084 2.084 2.084zm-1.25-1.25H14c0-.23.187-.416.417-.416V14c-1.15 0-2.084.933-2.084 2.083zm1.25-1.25v.834c.23 0 .416.186.416.416H16.5c0-1.15-.933-2.083-2.083-2.083z"/></svg>
